Newaita-dark/mimetypes/64/payment-card-unionpay.svg

<svg height="64pt" viewBox="0 0 64 64" width="64pt" xmlns="http://www.w3.org/2000/svg" xmlns:xlink="http://www.w3.org/1999/xlink"><linearGradient id="a" gradientUnits="userSpaceOnUse" x1="33.076089" x2="33.076089" y1="52.098742" y2="54.74482975004"><stop offset="0" stop-opacity=".27451"/><stop offset="1" stop-opacity="0"/></linearGradient><linearGradient id="b"><stop offset="0" stop-opacity=".313725"/><stop offset=".222222" stop-opacity=".27451"/><stop offset="1" stop-opacity="0"/></linearGradient><radialGradient id="c" cx="450.90894" cy="189.57936" gradientTransform="matrix(.00000035 -.156265 -.281277 -.0000002 106.907387 123.22154)" gradientUnits="userSpaceOnUse" r="21.166656" xlink:href="#b"/><radialGradient id="d" cx="450.90894" cy="189.57936" gradientTransform="matrix(-.00000035 .156265 .281277 .0000002 -43.401323 -19.024086)" gradientUnits="userSpaceOnUse" r="21.166656" xlink:href="#b"/><radialGradient id="e" cx="450.90894" cy="189.57936" gradientTransform="matrix(-.00000035 -.156265 .281277 -.0000002 -43.401323 123.22154)" gradientUnits="userSpaceOnUse" r="21.166656" xlink:href="#b"/><radialGradient id="f" cx="450.90894" cy="189.57936" gradientTransform="matrix(.00000035 .156265 -.281277 .0000002 106.907383 -19.024088)" gradientUnits="userSpaceOnUse" r="21.166656" xlink:href="#b"/><linearGradient id="g" gradientUnits="userSpaceOnUse" x1="31.753048" x2="31.753048" y1="61.36004350008" y2="3.14612175004"><stop offset="0" stop-color="#f44336"/><stop offset="1" stop-color="#ef5350"/></linearGradient><linearGradient id="h" gradientUnits="userSpaceOnUse" x1="31.753056" x2="31.753056" y1="61.36007509502" y2="3.14613615125"><stop offset="0" stop-color="#5c6bc0"/><stop offset="1" stop-color="#7986cb"/></linearGradient><linearGradient id="i" gradientUnits="userSpaceOnUse" x1="47.629584" x2="47.629584" y1="61.36007509502" y2="3.14613615125"><stop offset="0" stop-color="#26a69a"/><stop offset="1" stop-color="#4db6ac"/></linearGradient><path d="m9.261719 52.097656h44.984375v2.648438h-44.984375zm0 0" fill="url(#a)"/><path d="m54.246094 52.097656h5.289062v-2.644531h-5.289062zm0 0" fill="url(#c)"/><path d="m9.261719 52.097656h-5.292969v2.648438h5.292969zm0 0" fill="url(#d)"/><path d="m9.261719 52.097656h-5.292969v-2.644531h5.292969zm0 0" fill="url(#e)"/><path d="m54.246094 52.097656h5.289062v2.648438h-5.289062zm0 0" fill="url(#f)"/><path d="m7.9375 12.40625h47.628906c1.460938 0 2.648438 1.1875 2.648438 2.648438v34.398437c0 1.460937-1.1875 2.644531-2.648438 2.644531h-47.628906c-1.460938 0-2.644531-1.183594-2.644531-2.644531v-34.398437c0-1.460938 1.183593-2.648438 2.644531-2.648438zm0 0" fill="url(#g)"/><path d="m25.136719 12.40625c-1.464844 0-2.644531 1.179688-2.644531 2.648438v34.398437c0 1.464844 1.179687 2.644531 2.644531 2.644531h30.429687c1.46875 0 2.648438-1.179687 2.648438-2.644531v-34.398437c0-1.46875-1.179688-2.648438-2.648438-2.648438zm0 0" fill="url(#h)"/><path d="m43.660156 12.40625c-1.464844 0-2.644531 1.179688-2.644531 2.648438v34.398437c0 1.464844 1.179687 2.644531 2.644531 2.644531h11.90625c1.46875 0 2.648438-1.179687 2.648438-2.644531v-34.398437c0-1.46875-1.179688-2.648438-2.648438-2.648438zm0 0" fill="url(#i)"/><path d="m7.9375 12.40625c-1.464844 0-2.644531 1.179688-2.644531 2.648438v.660156c0-1.464844 1.179687-2.644532 2.644531-2.644532h47.628906c1.46875 0 2.648438 1.179688 2.648438 2.644532v-.660156c0-1.46875-1.179688-2.648438-2.648438-2.648438zm0 0" fill="#fff" fill-opacity=".588235"/><path d="m5.292969 48.8125v.640625c0 1.464844 1.179687 2.644531 2.644531 2.644531h47.628906c1.46875 0 2.648438-1.179687 2.648438-2.644531v-.640625c0 1.46875-1.179688 2.648438-2.648438 2.648438h-47.628906c-1.464844 0-2.644531-1.179688-2.644531-2.648438zm0 0" fill-opacity=".235294"/><path d="m63.493937-115.759477h380.994866c11.686384 0 21.185477 9.499093 21.185477 21.185477v275.161223c0 11.686384-9.499093 21.15423-21.185477 21.15423h-380.994866c-11.686384 0-21.15423-9.467846-21.15423-21.15423v-275.161223c0-11.686384 9.467846-21.185477 21.15423-21.185477zm0 0" fill="none" stroke="#212121" stroke-linecap="round" stroke-linejoin="round" stroke-width="3" transform="matrix(.125012 0 0 .125012 0 26.877566)"/></svg>

<svg xmlns="http://www.w3.org/2000/svg" xmlns:xlink="http://www.w3.org/1999/xlink" width="64px" height="64px" viewBox="0 0 64 64" version="1.1">
<defs>
<linearGradient id="linear0" gradientUnits="userSpaceOnUse" x1="33.076088" y1="52.098743" x2="33.076088" y2="54.744831" >
<stop offset="0" style="stop-color:rgb(0%,0%,0%);stop-opacity:0.27451;"/>
<stop offset="1" style="stop-color:rgb(0%,0%,0%);stop-opacity:0;"/>
</linearGradient>
<radialGradient id="radial0" gradientUnits="userSpaceOnUse" cx="450.908936" cy="189.579361" fx="450.908936" fy="189.579361" r="21.166656" gradientTransform="matrix(0.00000035,-0.156265,-0.281277,-0.0000002,106.907387,123.221542)">
<stop offset="0" style="stop-color:rgb(0%,0%,0%);stop-opacity:0.313725;"/>
<stop offset="0.222222" style="stop-color:rgb(0%,0%,0%);stop-opacity:0.27451;"/>
<stop offset="1" style="stop-color:rgb(0%,0%,0%);stop-opacity:0;"/>
</radialGradient>
<radialGradient id="radial1" gradientUnits="userSpaceOnUse" cx="450.908936" cy="189.579361" fx="450.908936" fy="189.579361" r="21.166656" gradientTransform="matrix(-0.00000035,0.156265,0.281277,0.0000002,-43.401321,-19.024086)">
<stop offset="0" style="stop-color:rgb(0%,0%,0%);stop-opacity:0.313725;"/>
<stop offset="0.222222" style="stop-color:rgb(0%,0%,0%);stop-opacity:0.27451;"/>
<stop offset="1" style="stop-color:rgb(0%,0%,0%);stop-opacity:0;"/>
</radialGradient>
<radialGradient id="radial2" gradientUnits="userSpaceOnUse" cx="450.908936" cy="189.579361" fx="450.908936" fy="189.579361" r="21.166656" gradientTransform="matrix(-0.00000035,-0.156265,0.281277,-0.0000002,-43.401321,123.221542)">
<stop offset="0" style="stop-color:rgb(0%,0%,0%);stop-opacity:0.313725;"/>
<stop offset="0.222222" style="stop-color:rgb(0%,0%,0%);stop-opacity:0.27451;"/>
<stop offset="1" style="stop-color:rgb(0%,0%,0%);stop-opacity:0;"/>
</radialGradient>
<radialGradient id="radial3" gradientUnits="userSpaceOnUse" cx="450.908936" cy="189.579361" fx="450.908936" fy="189.579361" r="21.166656" gradientTransform="matrix(0.00000035,0.156265,-0.281277,0.0000002,106.907387,-19.024088)">
<stop offset="0" style="stop-color:rgb(0%,0%,0%);stop-opacity:0.313725;"/>
<stop offset="0.222222" style="stop-color:rgb(0%,0%,0%);stop-opacity:0.27451;"/>
<stop offset="1" style="stop-color:rgb(0%,0%,0%);stop-opacity:0;"/>
</radialGradient>
<linearGradient id="linear1" gradientUnits="userSpaceOnUse" x1="31.753048" y1="61.360043" x2="31.753048" y2="3.146122" >
<stop offset="0" style="stop-color:rgb(95.686275%,26.274511%,21.176471%);stop-opacity:1;"/>
<stop offset="1" style="stop-color:rgb(93.725491%,32.549021%,31.37255%);stop-opacity:1;"/>
</linearGradient>
<linearGradient id="linear2" gradientUnits="userSpaceOnUse" x1="31.753056" y1="61.360077" x2="31.753056" y2="3.146136" >
<stop offset="0" style="stop-color:rgb(36.078432%,41.960785%,75.294119%);stop-opacity:1;"/>
<stop offset="1" style="stop-color:rgb(47.450981%,52.549022%,79.607844%);stop-opacity:1;"/>
</linearGradient>
<linearGradient id="linear3" gradientUnits="userSpaceOnUse" x1="47.629585" y1="61.360077" x2="47.629585" y2="3.146136" >
<stop offset="0" style="stop-color:rgb(14.901961%,65.098041%,60.392159%);stop-opacity:1;"/>
<stop offset="1" style="stop-color:rgb(30.19608%,71.372551%,67.450982%);stop-opacity:1;"/>
</linearGradient>
</defs>
<g id="surface1">
<path style=" stroke:none;fill-rule:nonzero;fill:url(#linear0);" d="M 9.261719 52.097656 L 54.246094 52.097656 L 54.246094 54.746094 L 9.261719 54.746094 Z M 9.261719 52.097656 "/>
<path style=" stroke:none;fill-rule:nonzero;fill:url(#radial0);" d="M 54.246094 52.097656 L 59.535156 52.097656 L 59.535156 49.453125 L 54.246094 49.453125 Z M 54.246094 52.097656 "/>
<path style=" stroke:none;fill-rule:nonzero;fill:url(#radial1);" d="M 9.261719 52.097656 L 3.96875 52.097656 L 3.96875 54.746094 L 9.261719 54.746094 Z M 9.261719 52.097656 "/>
<path style=" stroke:none;fill-rule:nonzero;fill:url(#radial2);" d="M 9.261719 52.097656 L 3.96875 52.097656 L 3.96875 49.453125 L 9.261719 49.453125 Z M 9.261719 52.097656 "/>
<path style=" stroke:none;fill-rule:nonzero;fill:url(#radial3);" d="M 54.246094 52.097656 L 59.535156 52.097656 L 59.535156 54.746094 L 54.246094 54.746094 Z M 54.246094 52.097656 "/>
<path style=" stroke:none;fill-rule:nonzero;fill:url(#linear1);" d="M 7.9375 12.40625 L 55.566406 12.40625 C 57.027344 12.40625 58.214844 13.59375 58.214844 15.054688 L 58.214844 49.453125 C 58.214844 50.914062 57.027344 52.097656 55.566406 52.097656 L 7.9375 52.097656 C 6.476562 52.097656 5.292969 50.914062 5.292969 49.453125 L 5.292969 15.054688 C 5.292969 13.59375 6.476562 12.40625 7.9375 12.40625 Z M 7.9375 12.40625 "/>
<path style=" stroke:none;fill-rule:nonzero;fill:url(#linear2);" d="M 25.136719 12.40625 C 23.671875 12.40625 22.492188 13.585938 22.492188 15.054688 L 22.492188 49.453125 C 22.492188 50.917969 23.671875 52.097656 25.136719 52.097656 L 55.566406 52.097656 C 57.035156 52.097656 58.214844 50.917969 58.214844 49.453125 L 58.214844 15.054688 C 58.214844 13.585938 57.035156 12.40625 55.566406 12.40625 Z M 25.136719 12.40625 "/>
<path style=" stroke:none;fill-rule:nonzero;fill:url(#linear3);" d="M 43.660156 12.40625 C 42.195312 12.40625 41.015625 13.585938 41.015625 15.054688 L 41.015625 49.453125 C 41.015625 50.917969 42.195312 52.097656 43.660156 52.097656 L 55.566406 52.097656 C 57.035156 52.097656 58.214844 50.917969 58.214844 49.453125 L 58.214844 15.054688 C 58.214844 13.585938 57.035156 12.40625 55.566406 12.40625 Z M 43.660156 12.40625 "/>
<path style=" stroke:none;fill-rule:nonzero;fill:rgb(100%,100%,100%);fill-opacity:0.588235;" d="M 7.9375 12.40625 C 6.472656 12.40625 5.292969 13.585938 5.292969 15.054688 L 5.292969 15.714844 C 5.292969 14.25 6.472656 13.070312 7.9375 13.070312 L 55.566406 13.070312 C 57.035156 13.070312 58.214844 14.25 58.214844 15.714844 L 58.214844 15.054688 C 58.214844 13.585938 57.035156 12.40625 55.566406 12.40625 Z M 7.9375 12.40625 "/>
<path style=" stroke:none;fill-rule:nonzero;fill:rgb(0%,0%,0%);fill-opacity:0.235294;" d="M 5.292969 48.8125 L 5.292969 49.453125 C 5.292969 50.917969 6.472656 52.097656 7.9375 52.097656 L 55.566406 52.097656 C 57.035156 52.097656 58.214844 50.917969 58.214844 49.453125 L 58.214844 48.8125 C 58.214844 50.28125 57.035156 51.460938 55.566406 51.460938 L 7.9375 51.460938 C 6.472656 51.460938 5.292969 50.28125 5.292969 48.8125 Z M 5.292969 48.8125 "/>
<path style="fill:none;stroke-width:3;stroke-linecap:round;stroke-linejoin:round;stroke:rgb(12.941177%,12.941177%,12.941177%);stroke-opacity:1;stroke-miterlimit:4;" d="M 63.493907 -115.759414 L 444.488595 -115.759414 C 456.174974 -115.759414 465.674062 -106.260326 465.674062 -94.573947 L 465.674062 180.587147 C 465.674062 192.273526 456.174974 201.741367 444.488595 201.741367 L 63.493907 201.741367 C 51.807528 201.741367 42.339687 192.273526 42.339687 180.587147 L 42.339687 -94.573947 C 42.339687 -106.260326 51.807528 -115.759414 63.493907 -115.759414 Z M 63.493907 -115.759414 " transform="matrix(0.125012,0,0,0.125012,0,26.877565)"/>
</g>
</svg>
